svg/white/sin.svg

<?xml version="1.0" encoding="UTF-8"?>
<svg width="32px" height="32px" viewBox="0 0 32 32" version="1.1" xmlns="http://www.w3.org/2000/svg" xmlns:xlink="http://www.w3.org/1999/xlink">
    <title>svg/white/sin</title>
    <g id="white/sin" stroke="none" stroke-width="1" fill="none" fill-rule="evenodd">
        <path d="M16,-3.3553407e-15 C24.836556,-3.3553407e-15 32,7.163444 32,16 C32,24.836556 24.836556,32 16,32 C7.163444,32 0,24.836556 0,16 C0,7.163444 7.163444,-3.3553407e-15 16,-3.3553407e-15 Z M20.3581576,6.95686436 C20.2766708,6.91606378 20.2157796,6.92227257 20.1427998,6.97460374 C19.4788173,7.44824521 18.8416986,7.95248711 18.2941257,8.55873044 C17.9193763,8.97338847 17.595668,9.4221948 17.3718034,9.93619336 C17.2227096,10.2776764 17.1268955,10.633351 17.099584,11.0041041 C17.0588407,11.550477 17.1519683,12.0782236 17.337776,12.5922221 C17.5280609,13.1186383 17.7899825,13.6109061 18.0711565,14.0938607 C18.4024762,14.6619644 18.7606596,15.2145461 19.0772041,15.7915195 C19.3413644,16.2727002 19.5759745,16.7662984 19.7259638,17.2953755 C19.8616258,17.7747822 19.9171442,18.2626152 19.8625213,18.7584309 C19.8029733,19.298595 19.6194043,19.800176 19.3471849,20.2698261 C19.0109402,20.8499039 18.5788815,21.3532588 18.0917521,21.8140392 C17.5979067,22.2810284 17.0579452,22.6899212 16.49112,23.0642221 C15.7626645,23.5454028 14.9943611,23.9569564 14.2041189,24.3285965 C13.5307341,24.6452444 12.8425742,24.9273006 12.1441166,25.1845216 C12.1096415,25.1969391 12.0653163,25.1978261 12.0465116,25.2412876 C12.0666594,25.2816447 12.1091937,25.2860795 12.1454598,25.3016015 C12.4284247,25.4133596 12.7163146,25.5100392 13.0086818,25.5947448 C13.8553378,25.8404352 14.719903,25.973037 15.6010342,25.9965417 C15.8763877,26.004081 16.1517412,25.9992026 16.4275424,25.9827937 C16.8390056,25.9584021 17.2482301,25.9149406 17.6534251,25.8422091 C18.7082752,25.6532847 19.7085024,25.3091407 20.6532111,24.8062293 C21.4336032,24.3906843 22.1463882,23.8815641 22.793357,23.28286 C23.3503322,22.7675309 23.8414912,22.1949924 24.266834,21.5683488 C24.8363456,20.7292761 25.2697475,19.8263416 25.5661443,18.8582149 C25.8370205,17.9730198 25.9713392,17.0674244 25.9977553,16.1449766 C26.0067099,15.8292156 25.9874575,15.5138982 25.965071,15.1990241 C25.9332823,14.7488874 25.8670183,14.3040724 25.7725475,13.8628053 C25.4663006,12.4352286 24.8694775,11.1380364 23.9923759,9.96723727 C23.5101715,9.32329775 22.9558827,8.74676788 22.3330913,8.23409977 C21.7241795,7.73296227 21.0637789,7.31120849 20.3581576,6.95686436 Z M16.1444578,6.00655692 C15.5687516,5.9839411 14.9956446,6.02074724 14.4247035,6.10278503 C13.4742901,6.23936686 12.5632969,6.51297397 11.6934564,6.92671049 C10.382631,7.55019767 9.25807632,8.42644994 8.32282453,9.55591073 C7.51319712,10.533269 6.90673464,11.6285844 6.50820215,12.8427436 C6.16771678,13.8799673 5.99660772,14.9460151 6.00137279,16.1238117 C5.99314222,16.4528497 6.02259897,16.8634821 6.07154916,17.2714538 C6.16468447,18.0452697 6.34272453,18.798687 6.60783527,19.5299319 C6.87381239,20.2651679 7.21992919,20.9582763 7.6453193,21.6097007 C8.16860979,22.4105669 8.79023383,23.1223002 9.51235737,23.7409094 C10.1105893,24.2526478 10.7577714,24.6872264 11.4565028,25.0419844 C11.5297115,25.079234 11.5855927,25.0823381 11.6553359,25.0308982 C12.1340081,24.6783574 12.598385,24.3085222 13.0246415,23.8903512 C13.4872858,23.436261 13.9018462,22.9435908 14.2046442,22.3604573 C14.4593585,21.8704479 14.6057759,21.3498405 14.6170387,20.7933139 C14.6252693,20.3707084 14.5503279,19.960076 14.4247035,19.5591995 C14.2449307,18.984935 13.9733221,18.4541283 13.6813538,17.9339644 C13.3603618,17.3623606 13.0107795,16.8076077 12.7027832,16.2275784 C12.4593319,15.7686102 12.2384062,15.2994428 12.0911225,14.7974602 C11.8914231,14.1180986 11.8481043,13.4329722 12.0235452,12.7407507 C12.161732,12.1944234 12.4142804,11.703527 12.7339727,11.2476629 C13.2087462,10.5700752 13.7935493,10.0037927 14.4342336,9.49471497 C15.1706523,8.91025116 15.964685,8.41979823 16.7916399,7.98344588 C17.5375888,7.5896645 18.305197,7.24554924 19.0888332,6.93868357 L19.0888332,6.93868357 L19.4483788,6.79855416 C19.4670058,6.79101555 19.490398,6.78259005 19.488232,6.75687009 C19.4864993,6.7373584 19.4670058,6.73026324 19.4514111,6.72272464 C19.4358163,6.71518603 19.4197884,6.70853432 19.4037605,6.7018826 C18.3567463,6.27794679 17.2685793,6.05045822 16.1444578,6.00655692 Z" id="Combined-Shape" fill="#FFFFFF"></path>
        <g id="sinovate" transform="translate(6.000000, 6.000000)"></g>
    </g>
</svg>

<svg width="32" height="32" viewBox="0 0 32 32" xmlns="http://www.w3.org/2000/svg"><g fill="none" fill-rule="evenodd"><path d="M16 0c8.837 0 16 7.163 16 16s-7.163 16-16 16S0 24.837 0 16 7.163 0 16 0zm4.358 6.957c-.081-.04-.142-.035-.215.018-.664.473-1.301.977-1.849 1.584-.375.414-.698.863-.922 1.377-.15.342-.245.697-.272 1.068a3.8 3.8 0 00.238 1.588c.19.527.452 1.019.733 1.502.331.568.69 1.12 1.006 1.698.264.48.499.974.649 1.503.136.48.191.968.137 1.463a3.836 3.836 0 01-.516 1.512c-.336.58-.768 1.083-1.255 1.544-.494.467-1.034.876-1.6 1.25-.73.481-1.498.893-2.288 1.265a25.73 25.73 0 01-2.06.856c-.034.012-.079.013-.097.056.02.04.062.045.098.06a10.244 10.244 0 005.508.54 10.152 10.152 0 005.14-2.558 10.025 10.025 0 002.773-4.425c.271-.885.405-1.79.432-2.713a9.53 9.53 0 00-.033-.946 9.886 9.886 0 00-1.973-5.232 10.014 10.014 0 00-1.659-1.733 10.523 10.523 0 00-1.975-1.277zm-4.214-.95a9.46 9.46 0 00-1.72.096c-.95.136-1.86.41-2.73.824a9.788 9.788 0 00-3.371 2.629 9.995 9.995 0 00-1.815 3.287 10.195 10.195 0 00-.507 3.28c-.008.33.022.74.07 1.148a10.172 10.172 0 001.574 4.339 9.974 9.974 0 001.867 2.13 9.824 9.824 0 001.945 1.302c.073.037.129.04.198-.011.479-.353.943-.722 1.37-1.14.462-.455.877-.947 1.18-1.53.254-.49.4-1.011.412-1.568a3.86 3.86 0 00-.192-1.234c-.18-.574-.452-1.105-.744-1.625-.32-.572-.67-1.126-.978-1.706-.244-.46-.465-.929-.612-1.43-.2-.68-.243-1.365-.067-2.057.138-.547.39-1.037.71-1.493.475-.678 1.06-1.244 1.7-1.753a15.093 15.093 0 012.358-1.512 22.43 22.43 0 012.297-1.044l.36-.14c.018-.008.041-.016.04-.042-.003-.02-.022-.027-.038-.034-.015-.008-.031-.014-.047-.021a9.62 9.62 0 00-3.26-.695z" fill="#FFF"/></g></svg>
